X:111
T:Untitled. JBs.111
S:Jas.Blackshaw MS, 1837, N.Shropshire
A:North Shropshire
Z:T. Weatherall 2006
M:2/4
L:1/8
Q:1/4=100
R:Set Tune
K:C
G|ccde|ccd2|cgcg|dd/c/ BG|ccde|cc dg/g/|gg/g/ gg/g/|g3:|!
e/f/|gg a/g/f/e/|fe f2|fedc|BA G2|cc d/c/B/A/|Gg c2|!
egdg|dd/c/ BG|ccd/c/B/A/|Gg eG|Af/e/ d/c/B/d/|c3|]

